packages/core/src/svgs/tokens/branded/HZN.svg

<svg width="24" height="24" viewBox="0 0 24 24" fill="none" xmlns="http://www.w3.org/2000/svg">
<path d="M21.9999 11.9999L18.9999 9L17 11L18 11.9999L12 18L10 15.9999L11 15L11.4444 15.4999V12.5555H8.49999L8.99998 13L6 15.9999L12 21.9999L21.9999 11.9999Z" fill="#3377FF"/>
<path d="M18 8.00006L12 2.00006L2 12L5 15L7 13.0001L6 12L12 6.00006L14 8.00006L12.9999 9.00004L12.5555 8.50005V11.4445H15.4999L15 11L18 8.00006Z" fill="#2AD4B7"/>
</svg>

<svg xmlns="http://www.w3.org/2000/svg" width="24" height="24" fill="none" viewBox="0 0 24 24">
    <path fill="#37F" d="m22 12-3-3-2 2 1 1-6 6-2-2 1-1 .444.5v-2.944H8.5L9 13l-3 3 6 6z"/>
    <path fill="#2AD4B7" d="m18 8-6-6L2 12l3 3 2-2-1-1 6-6 2 2-1 1-.444-.5v2.944H15.5L15 11z"/>
</svg>
